victory_assets/slog3_to_709.cube
TITLE "SLog3 SGamut3Cine to Rec709 (VI)"
LUT_3D_SIZE 5
DOMAIN_MIN 0 0 0
DOMAIN_MAX 1 1 1
0.000000 0.000000 0.000000
0.254573 0.000000 0.000000
0.929615 0.000000 0.000000
1.000000 0.000000 0.000000
1.000000 0.000000 0.000000
0.000000 0.220096 0.000000
0.163992 0.190400 0.000000
0.957239 0.000000 0.000000
1.000000 0.000000 0.000000
1.000000 0.000000 0.000000
0.000000 0.908687 0.000000
0.000000 0.901141 0.000000
0.777555 0.838646 0.000000
1.000000 0.000000 0.000000
1.000000 0.000000 0.000000
0.000000 1.000000 0.000000
0.000000 1.000000 0.000000
0.000000 1.000000 0.000000
1.000000 1.000000 0.000000
1.000000 0.000000 0.000000
0.000000 1.000000 0.000000
0.000000 1.000000 0.000000
0.000000 1.000000 0.000000
0.000000 1.000000 0.000000
1.000000 1.000000 0.000000
0.000000 0.000000 0.201517
0.243654 0.000000 0.192439
0.928060 0.000000 0.107393
1.000000 0.000000 0.000000
1.000000 0.000000 0.000000
0.000000 0.183206 0.159556
0.148771 0.148801 0.148841
0.955255 0.000000 0.038859
1.000000 0.000000 0.000000
1.000000 0.000000 0.000000
0.000000 0.899391 0.000000
0.000000 0.891625 0.000000
0.773714 0.828373 0.000000
1.000000 0.000000 0.000000
1.000000 0.000000 0.000000
0.000000 1.000000 0.000000
0.000000 1.000000 0.000000
0.000000 1.000000 0.000000
1.000000 1.000000 0.000000
1.000000 0.000000 0.000000
0.000000 1.000000 0.000000
0.000000 1.000000 0.000000
0.000000 1.000000 0.000000
0.000000 1.000000 0.000000
1.000000 1.000000 0.000000
0.000000 0.000000 0.864776
0.140335 0.000000 0.862381
0.954189 0.000000 0.843445
1.000000 0.000000 0.634689
1.000000 0.000000 0.000000
0.000000 0.000000 0.854309
0.000000 0.000000 0.851883
0.938066 0.000000 0.832696
1.000000 0.000000 0.620235
1.000000 0.000000 0.000000
0.000000 0.821874 0.767494
0.000000 0.813329 0.764780
0.743040 0.743132 0.743255
1.000000 0.000000 0.493351
1.000000 0.000000 0.000000
0.000000 1.000000 0.000000
0.000000 1.000000 0.000000
0.000000 1.000000 0.000000
1.000000 1.000000 0.000000
1.000000 0.000000 0.000000
0.000000 1.000000 0.000000
0.000000 1.000000 0.000000
0.000000 1.000000 0.000000
0.000000 1.000000 0.000000
1.000000 1.000000 0.000000
0.000000 0.000000 1.000000
0.000000 0.000000 1.000000
0.701206 0.000000 1.000000
1.000000 0.000000 1.000000
1.000000 0.000000 0.999999
0.000000 0.000000 1.000000
0.000000 0.000000 1.000000
0.669484 0.000000 1.000000
1.000000 0.000000 1.000000
1.000000 0.000000 0.999999
0.000000 0.000000 1.000000
0.000000 0.000000 1.000000
0.333827 0.000000 1.000000
1.000000 0.000000 1.000000
1.000000 0.000000 0.999999
0.000000 1.000000 1.000000
0.000000 1.000000 1.000000
0.000000 1.000000 1.000000
1.000000 1.000000 1.000000
1.000000 0.000000 0.999870
0.000000 1.000000 0.000000
0.000000 1.000000 0.000000
0.000000 1.000000 0.000000
0.000000 1.000000 0.000000
1.000000 1.000000 0.000000
0.000000 0.000000 1.000000
0.000000 0.000000 1.000000
0.000000 0.000000 1.000000
1.000000 0.000000 1.000000
1.000000 0.000000 1.000000
0.000000 0.000000 1.000000
0.000000 0.000000 1.000000
0.000000 0.000000 1.000000
1.000000 0.000000 1.000000
1.000000 0.000000 1.000000
0.000000 0.000000 1.000000
0.000000 0.000000 1.000000
0.000000 0.000000 1.000000
1.000000 0.000000 1.000000
1.000000 0.000000 1.000000
0.000000 0.000000 1.000000
0.000000 0.000000 1.000000
0.000000 0.000000 1.000000
0.988468 0.000000 1.000000
1.000000 0.000000 1.000000
0.000000 1.000000 1.000000
0.000000 1.000000 1.000000
0.000000 1.000000 1.000000
0.000000 1.000000 1.000000
1.000000 1.000000 1.000000
