victory_assets/slog3_to_709.cube
TITLE "SLog3 SGamut3Cine to Rec709 (VI)"
LUT_3D_SIZE 9
DOMAIN_MIN 0 0 0
DOMAIN_MAX 1 1 1
0.000000 0.000000 0.000000
0.076226 0.000000 0.000000
0.254573 0.000000 0.000000
0.535365 0.000000 0.000000
0.929615 0.000000 0.000000
0.999965 0.000000 0.000000
1.000000 0.000000 0.000000
1.000000 0.000000 0.000000
1.000000 0.000000 0.000000
0.000000 0.047473 0.000000
0.005733 0.024302 0.000000
0.222776 0.000000 0.000000
0.519447 0.000000 0.000000
0.925142 0.000000 0.000000
0.999963 0.000000 0.000000
1.000000 0.000000 0.000000
1.000000 0.000000 0.000000
1.000000 0.000000 0.000000
0.000000 0.220096 0.000000
0.000000 0.208965 0.000000
0.163992 0.190400 0.000000
0.493241 0.122008 0.000000
0.957239 0.000000 0.000000
0.999960 0.000000 0.000000
1.000000 0.000000 0.000000
1.000000 0.000000 0.000000
1.000000 0.000000 0.000000
0.000000 0.483654 0.000000
0.000000 0.478037 0.000000
0.000000 0.469016 0.000000
0.401398 0.439774 0.000000
0.924982 0.335542 0.000000
0.999946 0.000000 0.000000
1.000000 0.000000 0.000000
1.000000 0.000000 0.000000
1.000000 0.000000 0.000000
0.000000 0.908687 0.000000
0.000000 0.905816 0.000000
0.000000 0.901141 0.000000
0.000000 0.886264 0.000000
0.777555 0.838646 0.000000
0.999868 0.669913 0.000000
1.000000 0.000000 0.000000
1.000000 0.000000 0.000000
1.000000 0.000000 0.000000
0.000000 0.999807 0.000000
0.000000 0.999804 0.000000
0.000000 0.999798 0.000000
0.000000 0.999778 0.000000
0.000000 0.999703 0.000000
0.997886 0.999272 0.000000
1.000000 0.988440 0.000000
1.000000 0.000000 0.000000
1.000000 0.000000 0.000000
0.000000 1.000000 0.000000
0.000000 1.000000 0.000000
0.000000 1.000000 0.000000
0.000000 1.000000 0.000000
0.000000 1.000000 0.000000
0.000000 1.000000 0.000000
1.000000 1.000000 0.000000
1.000000 1.000000 0.000000
1.000000 0.000000 0.000000
0.000000 1.000000 0.000000
0.000000 1.000000 0.000000
0.000000 1.000000 0.000000
0.000000 1.000000 0.000000
0.000000 1.000000 0.000000
0.000000 1.000000 0.000000
0.000000 1.000000 0.000000
1.000000 1.000000 0.000000
1.000000 1.000000 0.000000
0.000000 1.000000 0.000000
0.000000 1.000000 0.000000
0.000000 1.000000 0.000000
0.000000 1.000000 0.000000
0.000000 1.000000 0.000000
0.000000 1.000000 0.000000
0.000000 1.000000 0.000000
0.000000 1.000000 0.000000
1.000000 1.000000 0.000000
0.000000 0.000000 0.032676
0.067348 0.000000 0.025799
0.250390 0.000000 0.014913
0.533205 0.000000 0.000000
0.929017 0.000000 0.000000
0.999965 0.000000 0.000000
1.000000 0.000000 0.000000
1.000000 0.000000 0.000000
1.000000 0.000000 0.000000
0.000000 0.019053 0.002768
0.000000 0.000000 0.000000
0.218136 0.000000 0.000000
0.517222 0.000000 0.000000
0.924505 0.000000 0.000000
0.999963 0.000000 0.000000
1.000000 0.000000 0.000000
1.000000 0.000000 0.000000
1.000000 0.000000 0.000000
0.000000 0.206382 0.000000
0.000000 0.194690 0.000000
0.158212 0.175089 0.000000
0.490903 0.101267 0.000000
0.956476 0.000000 0.000000
0.999959 0.000000 0.000000
1.000000 0.000000 0.000000
1.000000 0.000000 0.000000
1.000000 0.000000 0.000000
0.000000 0.476756 0.000000
0.000000 0.471062 0.000000
0.000000 0.461913 0.000000
0.398565 0.432224 0.000000
0.923923 0.325883 0.000000
0.999946 0.000000 0.000000
1.000000 0.000000 0.000000
1.000000 0.000000 0.000000
1.000000 0.000000 0.000000
0.000000 0.905156 0.000000
0.000000 0.902205 0.000000
0.000000 0.897469 0.000000
0.000000 0.882528 0.000000
0.776070 0.834684 0.000000
0.999867 0.664915 0.000000
1.000000 0.000000 0.000000
1.000000 0.000000 0.000000
1.000000 0.000000 0.000000
0.000000 0.999803 0.000000
0.000000 0.999799 0.000000
0.000000 0.999793 0.000000
0.000000 0.999772 0.000000
0.000000 0.999696 0.000000
0.997869 0.999255 0.000000
1.000000 0.988164 0.000000
1.000000 0.000000 0.000000
1.000000 0.000000 0.000000
0.000000 1.000000 0.000000
0.000000 1.000000 0.000000
0.000000 1.000000 0.000000
0.000000 1.000000 0.000000
0.000000 1.000000 0.000000
0.000000 1.000000 0.000000
1.000000 1.000000 0.000000
1.000000 1.000000 0.000000
1.000000 0.000000 0.000000
0.000000 1.000000 0.000000
0.000000 1.000000 0.000000
0.000000 1.000000 0.000000
0.000000 1.000000 0.000000
0.000000 1.000000 0.000000
0.000000 1.000000 0.000000
0.000000 1.000000 0.000000
1.000000 1.000000 0.000000
1.000000 1.000000 0.000000
0.000000 1.000000 0.000000
0.000000 1.000000 0.000000
0.000000 1.000000 0.000000
0.000000 1.000000 0.000000
0.000000 1.000000 0.000000
0.000000 1.000000 0.000000
0.000000 1.000000 0.000000
0.000000 1.000000 0.000000
1.000000 1.000000 0.000000
0.000000 0.000000 0.201517
0.052006 0.000000 0.198038
0.243654 0.000000 0.192439
0.529768 0.000000 0.174188
0.928060 0.000000 0.107393
0.999965 0.000000 0.000000
1.000000 0.000000 0.000000
1.000000 0.000000 0.000000
1.000000 0.000000 0.000000
0.000000 0.000000 0.186053
0.000000 0.000000 0.182368
0.210635 0.000000 0.176429
0.513682 0.000000 0.156965
0.923484 0.000000 0.083737
0.999963 0.000000 0.000000
1.000000 0.000000 0.000000
1.000000 0.000000 0.000000
1.000000 0.000000 0.000000
0.000000 0.183206 0.159556
0.000000 0.170438 0.155464
0.148771 0.148801 0.148841
0.487181 0.063056 0.126886
0.955255 0.000000 0.038859
0.999959 0.000000 0.000000
1.000000 0.000000 0.000000
1.000000 0.000000 0.000000
1.000000 0.000000 0.000000
0.000000 0.465640 0.047594
0.000000 0.459817 0.040717
0.000000 0.450454 0.029831
0.394042 0.420018 0.000000
0.922226 0.310071 0.000000
0.999945 0.000000 0.000000
1.000000 0.000000 0.000000
1.000000 0.000000 0.000000
1.000000 0.000000 0.000000
0.000000 0.899391 0.000000
0.000000 0.896393 0.000000
0.000000 0.891625 0.000000
0.000000 0.876578 0.000000
0.773714 0.828373 0.000000
0.999865 0.656925 0.000000
1.000000 0.000000 0.000000
1.000000 0.000000 0.000000
1.000000 0.000000 0.000000
0.000000 0.999795 0.000000
0.000000 0.999791 0.000000
0.000000 0.999785 0.000000
0.000000 0.999764 0.000000
0.000000 0.999684 0.000000
0.997841 0.999227 0.000000
1.000000 0.987715 0.000000
1.000000 0.000000 0.000000
1.000000 0.000000 0.000000
0.000000 1.000000 0.000000
0.000000 1.000000 0.000000
0.000000 1.000000 0.000000
0.000000 1.000000 0.000000
0.000000 1.000000 0.000000
0.000000 1.000000 0.000000
1.000000 1.000000 0.000000
1.000000 1.000000 0.000000
1.000000 0.000000 0.000000
0.000000 1.000000 0.000000
0.000000 1.000000 0.000000
0.000000 1.000000 0.000000
0.000000 1.000000 0.000000
0.000000 1.000000 0.000000
0.000000 1.000000 0.000000
0.000000 1.000000 0.000000
1.000000 1.000000 0.000000
1.000000 1.000000 0.000000
0.000000 1.000000 0.000000
0.000000 1.000000 0.000000
0.000000 1.000000 0.000000
0.000000 1.000000 0.000000
0.000000 1.000000 0.000000
0.000000 1.000000 0.000000
0.000000 1.000000 0.000000
0.000000 1.000000 0.000000
1.000000 1.000000 0.000000
0.000000 0.000000 0.456131
0.003338 0.000000 0.454377
0.221655 0.000000 0.451586
0.518907 0.000000 0.442776
0.924988 0.000000 0.414532
0.999963 0.000000 0.313689
1.000000 0.000000 0.000000
1.000000 0.000000 0.000000
1.000000 0.000000 0.000000
0.000000 0.000000 0.448453
0.000000 0.000000 0.446670
0.185877 0.000000 0.443834
0.502488 0.000000 0.434879
0.920207 0.000000 0.406132
0.999961 0.000000 0.302900
1.000000 0.000000 0.000000
1.000000 0.000000 0.000000
1.000000 0.000000 0.000000
0.000000 0.092587 0.436041
0.000000 0.072968 0.434211
0.116568 0.037113 0.431299
0.475394 0.000000 0.422099
0.951331 0.000000 0.392504
0.999957 0.000000 0.285132
1.000000 0.000000 0.000000
1.000000 0.000000 0.000000
1.000000 0.000000 0.000000
0.000000 0.429256 0.395050
0.000000 0.422969 0.393046
0.000000 0.412838 0.389856
0.379626 0.379680 0.379752
0.916768 0.255731 0.346973
0.999943 0.000000 0.222783
1.000000 0.000000 0.000000
1.000000 0.000000 0.000000
1.000000 0.000000 0.000000
0.000000 0.881070 0.233734
0.000000 0.878005 0.230621
0.000000 0.873131 0.225626
0.000000 0.857742 0.209485
0.766319 0.808360 0.152764
0.999859 0.631354 0.000000
1.000000 0.000000 0.000000
1.000000 0.000000 0.000000
1.000000 0.000000 0.000000
0.000000 0.999770 0.000000
0.000000 0.999766 0.000000
0.000000 0.999759 0.000000
0.000000 0.999735 0.000000
0.000000 0.999646 0.000000
0.997753 0.999132 0.000000
1.000000 0.986199 0.000000
1.000000 0.000000 0.000000
1.000000 0.000000 0.000000
0.000000 1.000000 0.000000
0.000000 1.000000 0.000000
0.000000 1.000000 0.000000
0.000000 1.000000 0.000000
0.000000 1.000000 0.000000
0.000000 1.000000 0.000000
1.000000 1.000000 0.000000
1.000000 1.000000 0.000000
1.000000 0.000000 0.000000
0.000000 1.000000 0.000000
0.000000 1.000000 0.000000
0.000000 1.000000 0.000000
0.000000 1.000000 0.000000
0.000000 1.000000 0.000000
0.000000 1.000000 0.000000
0.000000 1.000000 0.000000
1.000000 1.000000 0.000000
1.000000 1.000000 0.000000
0.000000 1.000000 0.000000
0.000000 1.000000 0.000000
0.000000 1.000000 0.000000
0.000000 1.000000 0.000000
0.000000 1.000000 0.000000
0.000000 1.000000 0.000000
0.000000 1.000000 0.000000
0.000000 1.000000 0.000000
1.000000 1.000000 0.000000
0.000000 0.000000 0.864776
0.000000 0.000000 0.863850
0.140335 0.000000 0.862381
0.483956 0.000000 0.857784
0.954189 0.000000 0.843445
0.999958 0.000000 0.797535
1.000000 0.000000 0.634689
1.000000 0.000000 0.000000
1.000000 0.000000 0.000000
0.000000 0.000000 0.860740
0.000000 0.000000 0.859809
0.088726 0.000000 0.858333
0.466371 0.000000 0.853713
0.948271 0.000000 0.839301
0.999956 0.000000 0.793140
1.000000 0.000000 0.629133
1.000000 0.000000 0.000000
1.000000 0.000000 0.000000
0.000000 0.000000 0.854309
0.000000 0.000000 0.853371
0.000000 0.000000 0.851883
0.437185 0.000000 0.847226
0.938066 0.000000 0.832696
0.999952 0.000000 0.786131
1.000000 0.000000 0.620235
1.000000 0.000000 0.000000
1.000000 0.000000 0.000000
0.000000 0.293186 0.833919
0.000000 0.284360 0.832957
0.000000 0.269912 0.831431
0.331749 0.220239 0.826653
0.898293 0.000000 0.811738
0.999935 0.000000 0.763844
1.000000 0.000000 0.591632
1.000000 0.000000 0.000000
1.000000 0.000000 0.000000
0.000000 0.821874 0.767494
0.000000 0.818577 0.766444
0.000000 0.813329 0.764780
0.000000 0.796730 0.759567
0.743040 0.743132 0.743255
0.999841 0.545067 0.690476
1.000000 0.000000 0.493351
1.000000 0.000000 0.000000
1.000000 0.000000 0.000000
0.000000 0.999672 0.509783
0.000000 0.999666 0.508204
0.000000 0.999656 0.505695
0.000000 0.999622 0.497792
0.000000 0.999494 0.472635
0.997457 0.998761 0.385664
1.000000 0.980231 0.000000
1.000000 0.000000 0.000000
1.000000 0.000000 0.000000
0.000000 1.000000 0.000000
0.000000 1.000000 0.000000
0.000000 1.000000 0.000000
0.000000 1.000000 0.000000
0.000000 1.000000 0.000000
0.000000 1.000000 0.000000
1.000000 1.000000 0.000000
1.000000 1.000000 0.000000
1.000000 0.000000 0.000000
0.000000 1.000000 0.000000
0.000000 1.000000 0.000000
0.000000 1.000000 0.000000
0.000000 1.000000 0.000000
0.000000 1.000000 0.000000
0.000000 1.000000 0.000000
0.000000 1.000000 0.000000
1.000000 1.000000 0.000000
1.000000 1.000000 0.000000
0.000000 1.000000 0.000000
0.000000 1.000000 0.000000
0.000000 1.000000 0.000000
0.000000 1.000000 0.000000
0.000000 1.000000 0.000000
0.000000 1.000000 0.000000
0.000000 1.000000 0.000000
0.000000 1.000000 0.000000
1.000000 1.000000 0.000000
0.000000 0.000000 0.999551
0.000000 0.000000 0.999548
0.000000 0.000000 0.999544
0.356955 0.000000 0.999531
0.908059 0.000000 0.999489
0.999939 0.000000 0.999333
1.000000 0.000000 0.998487
1.000000 0.000000 0.980913
1.000000 0.000000 0.000000
0.000000 0.000000 0.999539
0.000000 0.000000 0.999537
0.000000 0.000000 0.999533
0.333460 0.000000 0.999519
0.898947 0.000000 0.999476
0.999936 0.000000 0.999317
1.000000 0.000000 0.998449
1.000000 0.000000 0.980432
1.000000 0.000000 0.000000
0.000000 0.000000 0.999521
0.000000 0.000000 0.999518
0.000000 0.000000 0.999514
0.293044 0.000000 0.999500
0.884142 0.000000 0.999455
0.999929 0.000000 0.999290
1.000000 0.000000 0.998388
1.000000 0.000000 0.979646
1.000000 0.000000 0.000000
0.000000 0.000000 0.999459
0.000000 0.000000 0.999456
0.000000 0.000000 0.999451
0.117985 0.000000 0.999436
0.836193 0.000000 0.999385
0.999905 0.000000 0.999198
1.000000 0.000000 0.998179
1.000000 0.000000 0.976981
1.000000 0.000000 0.000000
0.000000 0.602431 0.999213
0.000000 0.597900 0.999209
0.000000 0.590656 0.999202
0.000000 0.567481 0.999179
0.666033 0.489370 0.999105
0.999767 0.067636 0.998833
1.000000 0.000000 0.997350
1.000000 0.000000 0.966316
1.000000 0.000000 0.000000
0.000000 0.999017 0.997500
0.000000 0.998998 0.997486
0.000000 0.998967 0.997463
0.000000 0.998865 0.997391
0.000000 0.998482 0.997156
0.996276 0.996281 0.996289
1.000000 0.939356 0.991560
1.000000 0.000000 0.925609
1.000000 0.000000 0.000000
0.000000 1.000000 0.946278
0.000000 1.000000 0.945677
0.000000 1.000000 0.944718
0.000000 1.000000 0.941666
0.000000 1.000000 0.931624
0.000000 1.000000 0.893812
1.000000 1.000000 0.752796
1.000000 0.999999 0.000000
1.000000 0.000000 0.000000
0.000000 1.000000 0.000000
0.000000 1.000000 0.000000
0.000000 1.000000 0.000000
0.000000 1.000000 0.000000
0.000000 1.000000 0.000000
0.000000 1.000000 0.000000
0.000000 1.000000 0.000000
1.000000 1.000000 0.000000
1.000000 1.000000 0.000000
0.000000 1.000000 0.000000
0.000000 1.000000 0.000000
0.000000 1.000000 0.000000
0.000000 1.000000 0.000000
0.000000 1.000000 0.000000
0.000000 1.000000 0.000000
0.000000 1.000000 0.000000
0.000000 1.000000 0.000000
1.000000 1.000000 0.000000
0.000000 0.000000 1.000000
0.000000 0.000000 1.000000
0.000000 0.000000 1.000000
0.000000 0.000000 1.000000
0.701206 0.000000 1.000000
0.999803 0.000000 1.000000
1.000000 0.000000 1.000000
1.000000 0.000000 1.000000
1.000000 0.000000 0.999999
0.000000 0.000000 1.000000
0.000000 0.000000 1.000000
0.000000 0.000000 1.000000
0.000000 0.000000 1.000000
0.689101 0.000000 1.000000
0.999791 0.000000 1.000000
1.000000 0.000000 1.000000
1.000000 0.000000 1.000000
1.000000 0.000000 0.999999
0.000000 0.000000 1.000000
0.000000 0.000000 1.000000
0.000000 0.000000 1.000000
0.000000 0.000000 1.000000
0.669484 0.000000 1.000000
0.999771 0.000000 1.000000
1.000000 0.000000 1.000000
1.000000 0.000000 1.000000
1.000000 0.000000 0.999999
0.000000 0.000000 1.000000
0.000000 0.000000 1.000000
0.000000 0.000000 1.000000
0.000000 0.000000 1.000000
0.604201 0.000000 1.000000
0.999694 0.000000 1.000000
1.000000 0.000000 1.000000
1.000000 0.000000 1.000000
1.000000 0.000000 0.999999
0.000000 0.000000 1.000000
0.000000 0.000000 1.000000
0.000000 0.000000 1.000000
0.000000 0.000000 1.000000
0.333827 0.000000 1.000000
0.999247 0.000000 1.000000
1.000000 0.000000 1.000000
1.000000 0.000000 1.000000
1.000000 0.000000 0.999999
0.000000 0.970519 1.000000
0.000000 0.969942 1.000000
0.000000 0.969004 1.000000
0.000000 0.965884 1.000000
0.000000 0.954088 1.000000
0.987896 0.919970 1.000000
1.000000 0.262013 1.000000
1.000000 0.000000 1.000000
1.000000 0.000000 0.999996
0.000000 1.000000 1.000000
0.000000 1.000000 1.000000
0.000000 1.000000 1.000000
0.000000 1.000000 1.000000
0.000000 1.000000 1.000000
0.000000 1.000000 1.000000
1.000000 1.000000 1.000000
1.000000 0.999978 1.000000
1.000000 0.000000 0.999870
0.000000 1.000000 0.999925
0.000000 1.000000 0.999924
0.000000 1.000000 0.999923
0.000000 1.000000 0.999921
0.000000 1.000000 0.999914
0.000000 1.000000 0.999888
0.000000 1.000000 0.999746
1.000000 1.000000 0.996822
1.000000 1.000000 0.000000
0.000000 1.000000 0.000000
0.000000 1.000000 0.000000
0.000000 1.000000 0.000000
0.000000 1.000000 0.000000
0.000000 1.000000 0.000000
0.000000 1.000000 0.000000
0.000000 1.000000 0.000000
0.000000 1.000000 0.000000
1.000000 1.000000 0.000000
0.000000 0.000000 1.000000
0.000000 0.000000 1.000000
0.000000 0.000000 1.000000
0.000000 0.000000 1.000000
0.000000 0.000000 1.000000
0.992632 0.000000 1.000000
1.000000 0.000000 1.000000
1.000000 0.000000 1.000000
1.000000 0.000000 1.000000
0.000000 0.000000 1.000000
0.000000 0.000000 1.000000
0.000000 0.000000 1.000000
0.000000 0.000000 1.000000
0.000000 0.000000 1.000000
0.992182 0.000000 1.000000
1.000000 0.000000 1.000000
1.000000 0.000000 1.000000
1.000000 0.000000 1.000000
0.000000 0.000000 1.000000
0.000000 0.000000 1.000000
0.000000 0.000000 1.000000
0.000000 0.000000 1.000000
0.000000 0.000000 1.000000
0.991413 0.000000 1.000000
1.000000 0.000000 1.000000
1.000000 0.000000 1.000000
1.000000 0.000000 1.000000
0.000000 0.000000 1.000000
0.000000 0.000000 1.000000
0.000000 0.000000 1.000000
0.000000 0.000000 1.000000
0.000000 0.000000 1.000000
0.988488 0.000000 1.000000
1.000000 0.000000 1.000000
1.000000 0.000000 1.000000
1.000000 0.000000 1.000000
0.000000 0.000000 1.000000
0.000000 0.000000 1.000000
0.000000 0.000000 1.000000
0.000000 0.000000 1.000000
0.000000 0.000000 1.000000
0.971449 0.000000 1.000000
1.000000 0.000000 1.000000
1.000000 0.000000 1.000000
1.000000 0.000000 1.000000
0.000000 0.000000 1.000000
0.000000 0.000000 1.000000
0.000000 0.000000 1.000000
0.000000 0.000000 1.000000
0.000000 0.000000 1.000000
0.669365 0.000000 1.000000
1.000000 0.000000 1.000000
1.000000 0.000000 1.000000
1.000000 0.000000 1.000000
0.000000 0.999998 1.000000
0.000000 0.999997 1.000000
0.000000 0.999997 1.000000
0.000000 0.999997 1.000000
0.000000 0.999996 1.000000
0.000000 0.999991 1.000000
1.000000 0.999852 1.000000
1.000000 0.554986 1.000000
1.000000 0.000000 1.000000
0.000000 1.000000 1.000000
0.000000 1.000000 1.000000
0.000000 1.000000 1.000000
0.000000 1.000000 1.000000
0.000000 1.000000 1.000000
0.000000 1.000000 1.000000
0.000000 1.000000 1.000000
1.000000 1.000000 1.000000
1.000000 1.000000 1.000000
0.000000 1.000000 1.000000
0.000000 1.000000 1.000000
0.000000 1.000000 1.000000
0.000000 1.000000 1.000000
0.000000 1.000000 1.000000
0.000000 1.000000 1.000000
0.000000 1.000000 1.000000
0.000000 1.000000 1.000000
1.000000 1.000000 1.000000
0.000000 0.000000 1.000000
0.000000 0.000000 1.000000
0.000000 0.000000 1.000000
0.000000 0.000000 1.000000
0.000000 0.000000 1.000000
0.000000 0.000000 1.000000
1.000000 0.000000 1.000000
1.000000 0.000000 1.000000
1.000000 0.000000 1.000000
0.000000 0.000000 1.000000
0.000000 0.000000 1.000000
0.000000 0.000000 1.000000
0.000000 0.000000 1.000000
0.000000 0.000000 1.000000
0.000000 0.000000 1.000000
1.000000 0.000000 1.000000
1.000000 0.000000 1.000000
1.000000 0.000000 1.000000
0.000000 0.000000 1.000000
0.000000 0.000000 1.000000
0.000000 0.000000 1.000000
0.000000 0.000000 1.000000
0.000000 0.000000 1.000000
0.000000 0.000000 1.000000
1.000000 0.000000 1.000000
1.000000 0.000000 1.000000
1.000000 0.000000 1.000000
0.000000 0.000000 1.000000
0.000000 0.000000 1.000000
0.000000 0.000000 1.000000
0.000000 0.000000 1.000000
0.000000 0.000000 1.000000
0.000000 0.000000 1.000000
1.000000 0.000000 1.000000
1.000000 0.000000 1.000000
1.000000 0.000000 1.000000
0.000000 0.000000 1.000000
0.000000 0.000000 1.000000
0.000000 0.000000 1.000000
0.000000 0.000000 1.000000
0.000000 0.000000 1.000000
0.000000 0.000000 1.000000
1.000000 0.000000 1.000000
1.000000 0.000000 1.000000
1.000000 0.000000 1.000000
0.000000 0.000000 1.000000
0.000000 0.000000 1.000000
0.000000 0.000000 1.000000
0.000000 0.000000 1.000000
0.000000 0.000000 1.000000
0.000000 0.000000 1.000000
0.999998 0.000000 1.000000
1.000000 0.000000 1.000000
1.000000 0.000000 1.000000
0.000000 0.000000 1.000000
0.000000 0.000000 1.000000
0.000000 0.000000 1.000000
0.000000 0.000000 1.000000
0.000000 0.000000 1.000000
0.000000 0.000000 1.000000
0.988468 0.000000 1.000000
1.000000 0.000000 1.000000
1.000000 0.000000 1.000000
0.000000 1.000000 1.000000
0.000000 1.000000 1.000000
0.000000 1.000000 1.000000
0.000000 1.000000 1.000000
0.000000 1.000000 1.000000
0.000000 1.000000 1.000000
0.000000 1.000000 1.000000
1.000000 1.000000 1.000000
1.000000 0.946327 1.000000
0.000000 1.000000 1.000000
0.000000 1.000000 1.000000
0.000000 1.000000 1.000000
0.000000 1.000000 1.000000
0.000000 1.000000 1.000000
0.000000 1.000000 1.000000
0.000000 1.000000 1.000000
0.000000 1.000000 1.000000
1.000000 1.000000 1.000000
