victory_assets/slog3_to_709.cube
TITLE "SLog3 SGamut3Cine to Rec709 (VI)"
LUT_3D_SIZE 33
DOMAIN_MIN 0 0 0
DOMAIN_MAX 1 1 1
0.000000 0.000000 0.000000
0.000000 0.000000 0.000000
0.000000 0.000000 0.000000
0.028407 0.000000 0.000000
0.076226 0.000000 0.000000
0.115013 0.000000 0.000000
0.155191 0.000000 0.000000
0.202283 0.000000 0.000000
0.254573 0.000000 0.000000
0.312982 0.000000 0.000000
0.378503 0.000000 0.000000
0.452227 0.000000 0.000000
0.535365 0.000000 0.000000
0.629275 0.000000 0.000000
0.735481 0.000000 0.000000
0.855701 0.000000 0.000000
0.929615 0.000000 0.000000
0.979033 0.000000 0.000000
0.995668 0.000000 0.000000
0.999458 0.000000 0.000000
0.999965 0.000000 0.000000
0.999999 0.000000 0.000000
1.000000 0.000000 0.000000
1.000000 0.000000 0.000000
1.000000 0.000000 0.000000
1.000000 0.000000 0.000000
1.000000 0.000000 0.000000
1.000000 0.000000 0.000000
1.000000 0.000000 0.000000
1.000000 0.000000 0.000000
1.000000 0.000000 0.000000
1.000000 0.000000 0.000000
1.000000 0.000000 0.000000
0.000000 0.000000 0.000000
0.000000 0.000000 0.000000
0.000000 0.000000 0.000000
0.010474 0.000000 0.000000
0.059713 0.000000 0.000000
0.101714 0.000000 0.000000
0.144167 0.000000 0.000000
0.193141 0.000000 0.000000
0.246922 0.000000 0.000000
0.306538 0.000000 0.000000
0.373052 0.000000 0.000000
0.447600 0.000000 0.000000
0.531429 0.000000 0.000000
0.625920 0.000000 0.000000
0.732618 0.000000 0.000000
0.853256 0.000000 0.000000
0.928524 0.000000 0.000000
0.978717 0.000000 0.000000
0.995603 0.000000 0.000000
0.999450 0.000000 0.000000
0.999965 0.000000 0.000000
0.999999 0.000000 0.000000
1.000000 0.000000 0.000000
1.000000 0.000000 0.000000
1.000000 0.000000 0.000000
1.000000 0.000000 0.000000
1.000000 0.000000 0.000000
1.000000 0.000000 0.000000
1.000000 0.000000 0.000000
1.000000 0.000000 0.000000
1.000000 0.000000 0.000000
1.000000 0.000000 0.000000
1.000000 0.000000 0.000000
0.000000 0.000000 0.000000
0.000000 0.000000 0.000000
0.000000 0.000000 0.000000
0.000000 0.000000 0.000000
0.041601 0.000000 0.000000
0.087455 0.000000 0.000000
0.132595 0.000000 0.000000
0.183682 0.000000 0.000000
0.239082 0.000000 0.000000
0.299979 0.000000 0.000000
0.367528 0.000000 0.000000
0.442928 0.000000 0.000000
0.527464 0.000000 0.000000
0.622547 0.000000 0.000000
0.729744 0.000000 0.000000
0.850803 0.000000 0.000000
0.927415 0.000000 0.000000
0.978397 0.000000 0.000000
0.995538 0.000000 0.000000
0.999442 0.000000 0.000000
0.999964 0.000000 0.000000
0.999999 0.000000 0.000000
1.000000 0.000000 0.000000
1.000000 0.000000 0.000000
1.000000 0.000000 0.000000
1.000000 0.000000 0.000000
1.000000 0.000000 0.000000
1.000000 0.000000 0.000000
1.000000 0.000000 0.000000
1.000000 0.000000 0.000000
1.000000 0.000000 0.000000
1.000000 0.000000 0.000000
1.000000 0.000000 0.000000
0.000000 0.005906 0.000000
0.000000 0.000113 0.000000
0.000000 0.000000 0.000000
0.000000 0.000000 0.000000
0.023667 0.000000 0.000000
0.072013 0.000000 0.000000
0.120390 0.000000 0.000000
0.173874 0.000000 0.000000
0.231038 0.000000 0.000000
0.293298 0.000000 0.000000
0.361931 0.000000 0.000000
0.438210 0.000000 0.000000
0.523470 0.000000 0.000000
0.619156 0.000000 0.000000
0.726858 0.000000 0.000000
0.848344 0.000000 0.000000
0.926288 0.000000 0.000000
0.978072 0.000000 0.000000
0.995471 0.000000 0.000000
0.999434 0.000000 0.000000
0.999964 0.000000 0.000000
0.999999 0.000000 0.000000
1.000000 0.000000 0.000000
1.000000 0.000000 0.000000
1.000000 0.000000 0.000000
1.000000 0.000000 0.000000
1.000000 0.000000 0.000000
1.000000 0.000000 0.000000
1.000000 0.000000 0.000000
1.000000 0.000000 0.000000
1.000000 0.000000 0.000000
1.000000 0.000000 0.000000
1.000000 0.000000 0.000000
0.000000 0.047473 0.000000
0.000000 0.041680 0.000000
0.000000 0.035887 0.000000
0.000000 0.030095 0.000000
0.005733 0.024302 0.000000
0.055061 0.018509 0.000000
0.107445 0.011261 0.000000
0.163676 0.001094 0.000000
0.222776 0.000000 0.000000
0.286488 0.000000 0.000000
0.356256 0.000000 0.000000
0.433444 0.000000 0.000000
0.519447 0.000000 0.000000
0.615747 0.000000 0.000000
0.723960 0.000000 0.000000
0.845876 0.000000 0.000000
0.925142 0.000000 0.000000
0.977741 0.000000 0.000000
0.995404 0.000000 0.000000
0.999425 0.000000 0.000000
0.999963 0.000000 0.000000
0.999999 0.000000 0.000000
1.000000 0.000000 0.000000
1.000000 0.000000 0.000000
1.000000 0.000000 0.000000
1.000000 0.000000 0.000000
1.000000 0.000000 0.000000
1.000000 0.000000 0.000000
1.000000 0.000000 0.000000
1.000000 0.000000 0.000000
1.000000 0.000000 0.000000
1.000000 0.000000 0.000000
1.000000 0.000000 0.000000
0.000000 0.086111 0.000000
0.000000 0.081230 0.000000
0.000000 0.076214 0.000000
0.000000 0.071052 0.000000
0.000000 0.065731 0.000000
0.036861 0.060236 0.000000
0.093615 0.052829 0.000000
0.153042 0.042662 0.000000
0.214278 0.029189 0.000000
0.279544 0.011337 0.000000
0.350500 0.000000 0.000000
0.428629 0.000000 0.000000
0.515393 0.000000 0.000000
0.612318 0.000000 0.000000
0.721051 0.000000 0.000000
0.843401 0.000000 0.000000
0.923978 0.000000 0.000000
0.977406 0.000000 0.000000
0.995335 0.000000 0.000000
0.999417 0.000000 0.000000
0.999963 0.000000 0.000000
0.999999 0.000000 0.000000
1.000000 0.000000 0.000000
1.000000 0.000000 0.000000
1.000000 0.000000 0.000000
1.000000 0.000000 0.000000
1.000000 0.000000 0.000000
1.000000 0.000000 0.000000
1.000000 0.000000 0.000000
1.000000 0.000000 0.000000
1.000000 0.000000 0.000000
1.000000 0.000000 0.000000
1.000000 0.000000 0.000000
0.000000 0.125191 0.000000
0.000000 0.121189 0.000000
0.000000 0.117110 0.000000
0.000000 0.112950 0.000000
0.000000 0.108706 0.000000
0.014422 0.104371 0.000000
0.074761 0.098811 0.000000
0.139035 0.090736 0.000000
0.203281 0.079472 0.000000
0.270652 0.063360 0.000000
0.343181 0.039690 0.000000
0.422534 0.008343 0.000000
0.510278 0.000000 0.000000
0.608001 0.000000 0.000000
0.717393 0.000000 0.000000
0.840294 0.000000 0.000000
0.922495 0.000000 0.000000
0.976979 0.000000 0.000000
0.995248 0.000000 0.000000
0.999406 0.000000 0.000000
0.999962 0.000000 0.000000
0.999999 0.000000 0.000000
1.000000 0.000000 0.000000
1.000000 0.000000 0.000000
1.000000 0.000000 0.000000
1.000000 0.000000 0.000000
1.000000 0.000000 0.000000
1.000000 0.000000 0.000000
1.000000 0.000000 0.000000
1.000000 0.000000 0.000000
1.000000 0.000000 0.000000
1.000000 0.000000 0.000000
1.000000 0.000000 0.000000
0.000000 0.170384 0.000000
0.000000 0.167090 0.000000
0.000000 0.163752 0.000000
0.000000 0.160368 0.000000
0.000000 0.156938 0.000000
0.000000 0.153458 0.000000
0.044332 0.149032 0.000000
0.117803 0.142680 0.000000
0.187089 0.133985 0.000000
0.257767 0.121916 0.000000
0.332680 0.104794 0.000000
0.413846 0.079558 0.000000
0.503018 0.039760 0.000000
0.601894 0.000000 0.000000
0.712231 0.000000 0.000000
0.835914 0.000000 0.000000
0.920364 0.000000 0.000000
0.976367 0.000000 0.000000
0.995123 0.000000 0.000000
0.999390 0.000000 0.000000
0.999961 0.000000 0.000000
0.999999 0.000000 0.000000
1.000000 0.000000 0.000000
1.000000 0.000000 0.000000
1.000000 0.000000 0.000000
1.000000 0.000000 0.000000
1.000000 0.000000 0.000000
1.000000 0.000000 0.000000
1.000000 0.000000 0.000000
1.000000 0.000000 0.000000
1.000000 0.000000 0.000000
1.000000 0.000000 0.000000
1.000000 0.000000 0.000000
0.000000 0.220096 0.000000
0.000000 0.217353 0.000000
0.000000 0.214584 0.000000
0.000000 0.211788 0.000000
0.000000 0.208965 0.000000
0.000000 0.206113 0.000000
0.002622 0.202505 0.000000
0.085854 0.197364 0.000000
0.163992 0.190400 0.000000
0.239866 0.180886 0.000000
0.318309 0.167723 0.000000
0.402070 0.149142 0.000000
0.493241 0.122008 0.000000
0.593705 0.079638 0.000000
0.705330 0.008454 0.000000
0.830074 0.000000 0.000000
0.957239 0.000000 0.000000
0.975530 0.000000 0.000000
0.994952 0.000000 0.000000
0.999369 0.000000 0.000000
0.999960 0.000000 0.000000
0.999999 0.000000 0.000000
1.000000 0.000000 0.000000
1.000000 0.000000 0.000000
1.000000 0.000000 0.000000
1.000000 0.000000 0.000000
1.000000 0.000000 0.000000
1.000000 0.000000 0.000000
1.000000 0.000000 0.000000
1.000000 0.000000 0.000000
1.000000 0.000000 0.000000
1.000000 0.000000 0.000000
1.000000 0.000000 0.000000
0.000000 0.275264 0.000000
0.000000 0.272961 0.000000
0.000000 0.270643 0.000000
0.000000 0.268309 0.000000
0.000000 0.265959 0.000000
0.000000 0.263592 0.000000
0.000000 0.260606 0.000000
0.033462 0.256371 0.000000
0.129607 0.250673 0.000000
0.214425 0.242962 0.000000
0.298374 0.232443 0.000000
0.385967 0.217918 0.000000
0.479994 0.197485 0.000000
0.582679 0.167823 0.000000
0.696078 0.122094 0.000000
0.822268 0.039907 0.000000
0.952872 0.000000 0.000000
0.974375 0.000000 0.000000
0.994716 0.000000 0.000000
0.999340 0.000000 0.000000
0.999958 0.000000 0.000000
0.999999 0.000000 0.000000
1.000000 0.000000 0.000000
1.000000 0.000000 0.000000
1.000000 0.000000 0.000000
1.000000 0.000000 0.000000
1.000000 0.000000 0.000000
1.000000 0.000000 0.000000
1.000000 0.000000 0.000000
1.000000 0.000000 0.000000
1.000000 0.000000 0.000000
1.000000 0.000000 0.000000
1.000000 0.000000 0.000000
0.000000 0.336863 0.000000
0.000000 0.334920 0.000000
0.000000 0.332967 0.000000
0.000000 0.331005 0.000000
0.000000 0.329033 0.000000
0.000000 0.327050 0.000000
0.000000 0.324555 0.000000
0.000000 0.321027 0.000000
0.073446 0.316300 0.000000
0.176813 0.309944 0.000000
0.270115 0.301348 0.000000
0.363653 0.289632 0.000000
0.461890 0.273479 0.000000
0.567743 0.250807 0.000000
0.683623 0.218029 0.000000
0.811804 0.167916 0.000000
0.946734 0.079806 0.000000
0.972758 0.000000 0.000000
0.994387 0.000000 0.000000
0.999299 0.000000 0.000000
0.999955 0.000000 0.000000
0.999999 0.000000 0.000000
1.000000 0.000000 0.000000
1.000000 0.000000 0.000000
1.000000 0.000000 0.000000
1.000000 0.000000 0.000000
1.000000 0.000000 0.000000
1.000000 0.000000 0.000000
1.000000 0.000000 0.000000
1.000000 0.000000 0.000000
1.000000 0.000000 0.000000
1.000000 0.000000 0.000000
1.000000 0.000000 0.000000
0.000000 0.405942 0.000000
0.000000 0.404296 0.000000
0.000000 0.402644 0.000000
0.000000 0.400986 0.000000
0.000000 0.399322 0.000000
0.000000 0.397651 0.000000
0.000000 0.395552 0.000000
0.000000 0.392590 0.000000
0.000000 0.388634 0.000000
0.116408 0.383335 0.000000
0.228532 0.376211 0.000000
0.332080 0.366583 0.000000
0.436822 0.353468 0.000000
0.547338 0.335405 0.000000
0.666755 0.310093 0.000000
0.797717 0.273602 0.000000
0.937936 0.218131 0.000000
0.970454 0.122273 0.000000
0.993919 0.000000 0.000000
0.999240 0.000000 0.000000
0.999952 0.000000 0.000000
0.999999 0.000000 0.000000
1.000000 0.000000 0.000000
1.000000 0.000000 0.000000
1.000000 0.000000 0.000000
1.000000 0.000000 0.000000
1.000000 0.000000 0.000000
1.000000 0.000000 0.000000
1.000000 0.000000 0.000000
1.000000 0.000000 0.000000
1.000000 0.000000 0.000000
1.000000 0.000000 0.000000
1.000000 0.000000 0.000000
0.000000 0.483654 0.000000
0.000000 0.482255 0.000000
0.000000 0.480853 0.000000
0.000000 0.479447 0.000000
0.000000 0.478037 0.000000
0.000000 0.476623 0.000000
0.000000 0.474848 0.000000
0.000000 0.472348 0.000000
0.000000 0.469016 0.000000
0.000000 0.464566 0.000000
0.162481 0.458607 0.000000
0.285773 0.450597 0.000000
0.401398 0.439774 0.000000
0.519102 0.425040 0.000000
0.643716 0.404762 0.000000
0.778643 0.376379 0.000000
0.924982 0.335542 0.000000
0.967094 0.273716 0.000000
0.993237 0.168111 0.000000
0.999156 0.000000 0.000000
0.999946 0.000000 0.000000
0.999999 0.000000 0.000000
1.000000 0.000000 0.000000
1.000000 0.000000 0.000000
1.000000 0.000000 0.000000
1.000000 0.000000 0.000000
1.000000 0.000000 0.000000
1.000000 0.000000 0.000000
1.000000 0.000000 0.000000
1.000000 0.000000 0.000000
1.000000 0.000000 0.000000
1.000000 0.000000 0.000000
1.000000 0.000000 0.000000
0.000000 0.571276 0.000000
0.000000 0.570085 0.000000
0.000000 0.568892 0.000000
0.000000 0.567697 0.000000
0.000000 0.566499 0.000000
0.000000 0.565299 0.000000
0.000000 0.563793 0.000000
0.000000 0.561675 0.000000
0.000000 0.558856 0.000000
0.000000 0.555098 0.000000
0.029827 0.550081 0.000000
0.212765 0.543363 0.000000
0.349566 0.534334 0.000000
0.479239 0.522138 0.000000
0.611849 0.505542 0.000000
0.752595 0.482712 0.000000
0.905193 0.450785 0.000000
0.962031 0.404915 0.000000
0.992215 0.335670 0.000000
0.999028 0.218346 0.000000
0.999938 0.000000 0.000000
0.999998 0.000000 0.000000
1.000000 0.000000 0.000000
1.000000 0.000000 0.000000
1.000000 0.000000 0.000000
1.000000 0.000000 0.000000
1.000000 0.000000 0.000000
1.000000 0.000000 0.000000
1.000000 0.000000 0.000000
1.000000 0.000000 0.000000
1.000000 0.000000 0.000000
1.000000 0.000000 0.000000
1.000000 0.000000 0.000000
0.000000 0.670239 0.000000
0.000000 0.669224 0.000000
0.000000 0.668207 0.000000
0.000000 0.667189 0.000000
0.000000 0.666169 0.000000
0.000000 0.665148 0.000000
0.000000 0.663867 0.000000
0.000000 0.662067 0.000000
0.000000 0.659674 0.000000
0.000000 0.656490 0.000000
0.000000 0.652246 0.000000
0.069095 0.646580 0.000000
0.268274 0.638993 0.000000
0.421010 0.628799 0.000000
0.566891 0.615031 0.000000
0.716579 0.596299 0.000000
0.875743 0.570543 0.000000
0.954069 0.534547 0.000000
0.990616 0.482885 0.000000
0.998830 0.405059 0.000000
0.999925 0.273955 0.000000
0.999998 0.000000 0.000000
1.000000 0.000000 0.000000
1.000000 0.000000 0.000000
1.000000 0.000000 0.000000
1.000000 0.000000 0.000000
1.000000 0.000000 0.000000
1.000000 0.000000 0.000000
1.000000 0.000000 0.000000
1.000000 0.000000 0.000000
1.000000 0.000000 0.000000
1.000000 0.000000 0.000000
1.000000 0.000000 0.000000
0.000000 0.782150 0.000000
0.000000 0.781284 0.000000
0.000000 0.780416 0.000000
0.000000 0.779548 0.000000
0.000000 0.778678 0.000000
0.000000 0.777808 0.000000
0.000000 0.776717 0.000000
0.000000 0.775184 0.000000
0.000000 0.773148 0.000000
0.000000 0.770442 0.000000
0.000000 0.766841 0.000000
0.000000 0.762042 0.000000
0.111805 0.755634 0.000000
0.330026 0.747056 0.000000
0.501302 0.735530 0.000000
0.665793 0.719965 0.000000
0.834993 0.698794 0.000000
0.940798 0.669693 0.000000
0.987978 0.629039 0.000000
0.998503 0.570739 0.000000
0.999905 0.483046 0.000000
0.999998 0.335937 0.000000
1.000000 0.000000 0.000000
1.000000 0.000000 0.000000
1.000000 0.000000 0.000000
1.000000 0.000000 0.000000
1.000000 0.000000 0.000000
1.000000 0.000000 0.000000
1.000000 0.000000 0.000000
1.000000 0.000000 0.000000
1.000000 0.000000 0.000000
1.000000 0.000000 0.000000
1.000000 0.000000 0.000000
0.000000 0.908687 0.000000
0.000000 0.907975 0.000000
0.000000 0.907259 0.000000
0.000000 0.906539 0.000000
0.000000 0.905816 0.000000
0.000000 0.905088 0.000000
0.000000 0.904171 0.000000
0.000000 0.902875 0.000000
0.000000 0.901141 0.000000
0.000000 0.898836 0.000000
0.000000 0.895773 0.000000
0.000000 0.891697 0.000000
0.000000 0.886264 0.000000
0.157500 0.879012 0.000000
0.399096 0.869303 0.000000
0.591769 0.856259 0.000000
0.777555 0.838646 0.000000
0.956563 0.814692 0.000000
0.983296 0.781772 0.000000
0.997924 0.735801 0.000000
0.999868 0.669913 0.000000
0.999997 0.570920 0.000000
1.000000 0.405358 0.000000
1.000000 0.000000 0.000000
1.000000 0.000000 0.000000
1.000000 0.000000 0.000000
1.000000 0.000000 0.000000
1.000000 0.000000 0.000000
1.000000 0.000000 0.000000
1.000000 0.000000 0.000000
1.000000 0.000000 0.000000
1.000000 0.000000 0.000000
1.000000 0.000000 0.000000
0.000000 0.955384 0.000000
0.000000 0.955165 0.000000
0.000000 0.954946 0.000000
0.000000 0.954725 0.000000
0.000000 0.954502 0.000000
0.000000 0.954279 0.000000
0.000000 0.953998 0.000000
0.000000 0.953601 0.000000
0.000000 0.953070 0.000000
0.000000 0.952356 0.000000
0.000000 0.951393 0.000000
0.000000 0.950085 0.000000
0.000000 0.948297 0.000000
0.000000 0.945824 0.000000
0.207297 0.942359 0.000000
0.476650 0.937410 0.000000
0.693892 0.930163 0.000000
0.903980 0.959122 0.000000
0.974126 0.940314 0.000000
0.996799 0.908473 0.000000
0.999796 0.856566 0.000000
0.999995 0.782022 0.000000
1.000000 0.670118 0.000000
1.000000 0.483383 0.000000
1.000000 0.000000 0.000000
1.000000 0.000000 0.000000
1.000000 0.000000 0.000000
1.000000 0.000000 0.000000
1.000000 0.000000 0.000000
1.000000 0.000000 0.000000
1.000000 0.000000 0.000000
1.000000 0.000000 0.000000
1.000000 0.000000 0.000000
0.000000 0.988396 0.000000
0.000000 0.988340 0.000000
0.000000 0.988284 0.000000
0.000000 0.988228 0.000000
0.000000 0.988171 0.000000
0.000000 0.988114 0.000000
0.000000 0.988042 0.000000
0.000000 0.987941 0.000000
0.000000 0.987806 0.000000
0.000000 0.987624 0.000000
0.000000 0.987379 0.000000
0.000000 0.987047 0.000000
0.000000 0.986593 0.000000
0.000000 0.985967 0.000000
0.000000 0.985091 0.000000
0.262215 0.983846 0.000000
0.563973 0.982031 0.000000
0.809331 0.979306 0.000000
0.953573 0.975039 0.000000
0.994316 0.967974 0.000000
0.999639 0.955358 0.000000
0.999991 0.930342 0.000000
1.000000 0.908744 0.000000
1.000000 0.782254 0.000000
1.000000 0.571300 0.000000
1.000000 0.000000 0.000000
1.000000 0.000000 0.000000
1.000000 0.000000 0.000000
1.000000 0.000000 0.000000
1.000000 0.000000 0.000000
1.000000 0.000000 0.000000
1.000000 0.000000 0.000000
1.000000 0.000000 0.000000
0.000000 0.998014 0.000000
0.000000 0.998005 0.000000
0.000000 0.997995 0.000000
0.000000 0.997986 0.000000
0.000000 0.997976 0.000000
0.000000 0.997966 0.000000
0.000000 0.997954 0.000000
0.000000 0.997937 0.000000
0.000000 0.997914 0.000000
0.000000 0.997883 0.000000
0.000000 0.997841 0.000000
0.000000 0.997785 0.000000
0.000000 0.997708 0.000000
0.000000 0.997601 0.000000
0.000000 0.997453 0.000000
0.000000 0.997241 0.000000
0.323267 0.996934 0.000000
0.662497 0.996474 0.000000
0.935757 0.995755 0.000000
0.987809 0.994571 0.000000
0.999228 0.992478 0.000000
0.999980 0.988402 0.000000
1.000000 0.979374 0.000000
1.000000 0.955468 0.000000
1.000000 0.908995 0.000000
1.000000 0.670548 0.000000
1.000000 0.000000 0.000000
1.000000 0.000000 0.000000
1.000000 0.000000 0.000000
1.000000 0.000000 0.000000
1.000000 0.000000 0.000000
1.000000 0.000000 0.000000
1.000000 0.000000 0.000000
0.000000 0.999807 0.000000
0.000000 0.999806 0.000000
0.000000 0.999806 0.000000
0.000000 0.999805 0.000000
0.000000 0.999804 0.000000
0.000000 0.999803 0.000000
0.000000 0.999802 0.000000
0.000000 0.999800 0.000000
0.000000 0.999798 0.000000
0.000000 0.999795 0.000000
0.000000 0.999791 0.000000
0.000000 0.999785 0.000000
0.000000 0.999778 0.000000
0.000000 0.999767 0.000000
0.000000 0.999753 0.000000
0.000000 0.999733 0.000000
0.000000 0.999703 0.000000
0.391522 0.999658 0.000000
0.773828 0.999589 0.000000
0.966251 0.999474 0.000000
0.997886 0.999272 0.000000
0.999945 0.998881 0.000000
1.000000 0.998018 0.000000
1.000000 0.995773 0.000000
1.000000 0.988440 0.000000
1.000000 0.955570 0.000000
1.000000 0.782740 0.000000
1.000000 0.000000 0.000000
1.000000 0.000000 0.000000
1.000000 0.000000 0.000000
1.000000 0.000000 0.000000
1.000000 0.000000 0.000000
1.000000 0.000000 0.000000
0.000000 0.999991 0.000000
0.000000 0.999991 0.000000
0.000000 0.999991 0.000000
0.000000 0.999991 0.000000
0.000000 0.999991 0.000000
0.000000 0.999991 0.000000
0.000000 0.999991 0.000000
0.000000 0.999991 0.000000
0.000000 0.999991 0.000000
0.000000 0.999991 0.000000
0.000000 0.999990 0.000000
0.000000 0.999990 0.000000
0.000000 0.999990 0.000000
0.000000 0.999989 0.000000
0.000000 0.999989 0.000000
0.000000 0.999988 0.000000
0.000000 0.999986 0.000000
0.000000 0.999984 0.000000
0.468133 0.999981 0.000000
0.899772 0.999976 0.000000
0.991953 0.999967 0.000000
0.999791 0.999949 0.000000
0.999998 0.999910 0.000000
1.000000 0.999808 0.000000
1.000000 0.999477 0.000000
1.000000 0.998027 0.000000
1.000000 0.988474 0.000000
1.000000 0.909521 0.000000
1.000000 0.000000 0.000000
1.000000 0.000000 0.000000
1.000000 0.000000 0.000000
1.000000 0.000000 0.000000
1.000000 0.000000 0.000000
0.000000 1.000000 0.000000
0.000000 1.000000 0.000000
0.000000 1.000000 0.000000
0.000000 1.000000 0.000000
0.000000 1.000000 0.000000
0.000000 1.000000 0.000000
0.000000 1.000000 0.000000
0.000000 1.000000 0.000000
0.000000 1.000000 0.000000
0.000000 1.000000 0.000000
0.000000 1.000000 0.000000
0.000000 1.000000 0.000000
0.000000 1.000000 0.000000
0.000000 1.000000 0.000000
0.000000 1.000000 0.000000
0.000000 1.000000 0.000000
0.000000 1.000000 0.000000
0.000000 1.000000 0.000000
0.000000 1.000000 0.000000
0.554374 1.000000 0.000000
0.951838 0.999999 0.000000
0.998778 0.999999 0.000000
0.999990 0.999999 0.000000
1.000000 0.999997 0.000000
1.000000 0.999991 0.000000
1.000000 0.999967 0.000000
1.000000 0.999809 0.000000
1.000000 0.998034 0.000000
1.000000 0.955784 0.000000
1.000000 0.000000 0.000000
1.000000 0.000000 0.000000
1.000000 0.000000 0.000000
1.000000 0.000000 0.000000
0.000000 1.000000 0.000000
0.000000 1.000000 0.000000
0.000000 1.000000 0.000000
0.000000 1.000000 0.000000
0.000000 1.000000 0.000000
0.000000 1.000000 0.000000
0.000000 1.000000 0.000000
0.000000 1.000000 0.000000
0.000000 1.000000 0.000000
0.000000 1.000000 0.000000
0.000000 1.000000 0.000000
0.000000 1.000000 0.000000
0.000000 1.000000 0.000000
0.000000 1.000000 0.000000
0.000000 1.000000 0.000000
0.000000 1.000000 0.000000
0.000000 1.000000 0.000000
0.000000 1.000000 0.000000
0.000000 1.000000 0.000000
0.000000 1.000000 0.000000
0.651659 1.000000 0.000000
0.987214 1.000000 0.000000
0.999899 1.000000 0.000000
1.000000 1.000000 0.000000
1.000000 1.000000 0.000000
1.000000 1.000000 0.000000
1.000000 0.999999 0.000000
1.000000 0.999991 0.000000
1.000000 0.999810 0.000000
1.000000 0.988546 0.000000
1.000000 0.000000 0.000000
1.000000 0.000000 0.000000
1.000000 0.000000 0.000000
0.000000 1.000000 0.000000
0.000000 1.000000 0.000000
0.000000 1.000000 0.000000
0.000000 1.000000 0.000000
0.000000 1.000000 0.000000
0.000000 1.000000 0.000000
0.000000 1.000000 0.000000
0.000000 1.000000 0.000000
0.000000 1.000000 0.000000
0.000000 1.000000 0.000000
0.000000 1.000000 0.000000
0.000000 1.000000 0.000000
0.000000 1.000000 0.000000
0.000000 1.000000 0.000000
0.000000 1.000000 0.000000
0.000000 1.000000 0.000000
0.000000 1.000000 0.000000
0.000000 1.000000 0.000000
0.000000 1.000000 0.000000
0.000000 1.000000 0.000000
0.000000 1.000000 0.000000
0.761575 1.000000 0.000000
0.997749 1.000000 0.000000
0.999996 1.000000 0.000000
1.000000 1.000000 0.000000
1.000000 1.000000 0.000000
1.000000 1.000000 0.000000
1.000000 1.000000 0.000000
1.000000 1.000000 0.000000
1.000000 0.999991 0.000000
1.000000 0.998051 0.000000
1.000000 0.000000 0.000000
1.000000 0.000000 0.000000
0.000000 1.000000 0.000000
0.000000 1.000000 0.000000
0.000000 1.000000 0.000000
0.000000 1.000000 0.000000
0.000000 1.000000 0.000000
0.000000 1.000000 0.000000
0.000000 1.000000 0.000000
0.000000 1.000000 0.000000
0.000000 1.000000 0.000000
0.000000 1.000000 0.000000
0.000000 1.000000 0.000000
0.000000 1.000000 0.000000
0.000000 1.000000 0.000000
0.000000 1.000000 0.000000
0.000000 1.000000 0.000000
0.000000 1.000000 0.000000
0.000000 1.000000 0.000000
0.000000 1.000000 0.000000
0.000000 1.000000 0.000000
0.000000 1.000000 0.000000
0.000000 1.000000 0.000000
0.000000 1.000000 0.000000
0.885905 1.000000 0.000000
0.999773 1.000000 0.000000
1.000000 1.000000 0.000000
1.000000 1.000000 0.000000
1.000000 1.000000 0.000000
1.000000 1.000000 0.000000
1.000000 1.000000 0.000000
1.000000 1.000000 0.000000
1.000000 1.000000 0.000000
1.000000 0.999812 0.000000
1.000000 0.000000 0.000000
0.000000 1.000000 0.000000
0.000000 1.000000 0.000000
0.000000 1.000000 0.000000
0.000000 1.000000 0.000000
0.000000 1.000000 0.000000
0.000000 1.000000 0.000000
0.000000 1.000000 0.000000
0.000000 1.000000 0.000000
0.000000 1.000000 0.000000
0.000000 1.000000 0.000000
0.000000 1.000000 0.000000
0.000000 1.000000 0.000000
0.000000 1.000000 0.000000
0.000000 1.000000 0.000000
0.000000 1.000000 0.000000
0.000000 1.000000 0.000000
0.000000 1.000000 0.000000
0.000000 1.000000 0.000000
0.000000 1.000000 0.000000
0.000000 1.000000 0.000000
0.000000 1.000000 0.000000
0.000000 1.000000 0.000000
0.000000 1.000000 0.000000
0.945716 1.000000 0.000000
0.999989 1.000000 0.000000
1.000000 1.000000 0.000000
1.000000 1.000000 0.000000
